X:1
T:Title
%%score { ( 1 3 ) | ( 2 4 ) }
L:1/8
Q:1/4=112
M:3/4
K:Eb
V:1 treble nm="Grand Piano"
V:3 treble 
V:2 bass 
V:4 bass 
V:1
 [CE]2 [A,=B,D]2 [A,CE]2 | z2 [=B,G]4 | [CF]2 [A,CE]2 [A,CA]2 | C6[K:bass] | %4
w: E.~E.~Meyer * *||||
 [CE]2 [B,_D]2 [=A,C]2 | [B,_D]2 [DB]4 | G2 F2 G2 | [CA]4 z2 | [CE]2 [A,=B,D]2 [A,CE]2 | %9
w: |||||
 z2 [=B,G]4 | [CF]2 [A,CE]2 [A,CA]2 | [Ec]6 | B2 z2 z2 | [DA]2 [B,C]2 [B,E]2 | D2 G2 F2 | E6 | %16
w: |||||||
 [Ac]2 [Gc]2 [Fc]2 | [Ec]2 A2 E2 | D2 F2 c2 | [GB]6 | B2 c2 B2 | A2 G2 F2 | E2 F2 G2 | [CA]6 | %24
w: ||||||||
 [Ac]2 [Gc]2 [Fc]2 | [Ec]2 A2 E2 | D2 F2 c2 | [GB]6 | B2 c2 B2 | A2 G2 F2 | E2 F2 G2 | [CA]6 |] %32
w: ||||||||
V:2
 A,,2 E,2 E,2 | A,,2 [D,F,A,]2 D,2 | B,,2 E,2 E,2 | A,,2 E,2 E,2 | B,,2 E,2 _G,2 | E,,2 E,2 G,2 | %6
 E,,2 G,2 B,2 | A,,2 E,2 C,2 | A,,2 E,2 E,2 | A,,2 [D,F,A,]2 D,2 | A,,2 E,2 E,2 | A,,2 E,2 E,2 | %12
 B,,2 A,2 A,2 | B,,2 A,2 A,2 | B,,2 [A,B,D]2 [A,B,D]2 | [G,B,]2 A,2 B,2 | A,,2 [E,A,C]2 [E,A,C]2 | %17
 A,,2 [E,A,C]2 [E,A,C]2 | [B,,B,]2[K:treble] [A,B,D]2 [A,B,DA]2 | E,2 [G,B,]2 [G,B,]2 | %20
 _D4- [G,D-]2 | [B,D-]4 [G,D-]2 | D6 | A,,6 | A,,2 [E,A,C]2 [E,A,C]2 | A,,2 [E,A,C]2 [E,A,C]2 | %26
 [B,,B,]2[K:treble] [A,B,D]2 [A,B,DA]2 | E,2 [G,B,]2 [G,B,]2 | _D4- [G,D-]2 | [B,D-]4 [G,D-]2 | %30
 D6 | A,,6 |] %32
V:3
 x6 | [=B,F]2 z2 [F,A,]2 | x6 | z2[K:bass] A,2 A,2 | x6 | x6 | _D6 | A,2 z2 z2 | x6 | %9
 [=B,F]2 z2 [F,A,]2 | x6 | z2 [A,C]2 [A,C]2 | D2- [B,D-c]2 [B,DB]2 | x6 | x6 | z2 C2 _D2 | x6 | %17
 x6 | x6 | z2 E2 E2 | x6 | x6 | x6 | x6 | x6 | x6 | x6 | z2 E2 E2 | x6 | x6 | x6 | x6 |] %32
V:4
 x6 | x6 | x6 | x6 | x6 | x6 | x6 | x6 | x6 | x6 | x6 | x6 | x6 | x6 | x6 | E,6 | x6 | x6 | %18
 x2[K:treble] x4 | x6 | E,4 z2 | x6 | E,6- | E,6 | x6 | x6 | x2[K:treble] x4 | x6 | E,4 z2 | x6 | %30
 E,6- | E,6 |] %32

